svgs/regular/square-code.svg

<svg xmlns="http://www.w3.org/2000/svg" viewBox="0 0 448 512"><!-- Font Awesome Pro 6.0.0-alpha2 by @fontawesome - https://fontawesome.com License - https://fontawesome.com/license (Commercial License) --><path d="M192.969 175.031C183.594 165.656 168.406 165.656 159.031 175.031L95.031 239.031C85.656 248.406 85.656 263.594 95.031 272.969L159.031 336.969C163.719 341.656 169.859 344 176 344S188.281 341.656 192.969 336.969C202.344 327.594 202.344 312.406 192.969 303.031L145.938 256L192.969 208.969C202.344 199.594 202.344 184.406 192.969 175.031ZM288.969 175.031C279.594 165.656 264.406 165.656 255.031 175.031S245.656 199.594 255.031 208.969L302.062 256L255.031 303.031C245.656 312.406 245.656 327.594 255.031 336.969C259.719 341.656 265.859 344 272 344S284.281 341.656 288.969 336.969L352.969 272.969C362.344 263.594 362.344 248.406 352.969 239.031L288.969 175.031ZM384 32H64C28.654 32 0 60.656 0 96V416C0 451.344 28.654 480 64 480H384C419.346 480 448 451.344 448 416V96C448 60.656 419.346 32 384 32ZM400 416C400 424.824 392.822 432 384 432H64C55.178 432 48 424.824 48 416V96C48 87.176 55.178 80 64 80H384C392.822 80 400 87.176 400 96V416Z"/></svg>

<svg xmlns="http://www.w3.org/2000/svg" viewBox="0 0 448 512"><!--! Font Awesome Pro 6.4.0 by @fontawesome - https://fontawesome.com License - https://fontawesome.com/license (Commercial License) Copyright 2023 Fonticons, Inc. --><path d="M384 80c8.8 0 16 7.2 16 16V416c0 8.8-7.2 16-16 16H64c-8.8 0-16-7.2-16-16V96c0-8.8 7.2-16 16-16H384zM64 32C28.7 32 0 60.7 0 96V416c0 35.3 28.7 64 64 64H384c35.3 0 64-28.7 64-64V96c0-35.3-28.7-64-64-64H64zM255 175c-9.4 9.4-9.4 24.6 0 33.9l47 47-47 47c-9.4 9.4-9.4 24.6 0 33.9s24.6 9.4 33.9 0l64-64c9.4-9.4 9.4-24.6 0-33.9l-64-64c-9.4-9.4-24.6-9.4-33.9 0zM193 209c9.4-9.4 9.4-24.6 0-33.9s-24.6-9.4-33.9 0L95 239c-9.4 9.4-9.4 24.6 0 33.9l64 64c9.4 9.4 24.6 9.4 33.9 0s9.4-24.6 0-33.9l-47-47 47-47z"/></svg>
